X:1
T:Comforter Divine, 886
T:Comforter Divine, 886
T:Samuel Reay (1828-1905)
T:Public Domain Courtesy of the Cyber Hymnal™
C:Samuel Reay (1828-1905)
Z:Public Domain
Z:Courtesy of the Cyber Hymnal™
%%score ( 1 2 ) 3
L:1/8
Q:1/4=105
M:4/4
K:Eb
V:1 treble 
V:2 treble 
V:3 bass 
V:1
 [EG]2 [EG][EG] [EG]3 [EG] | [EF]2 [DF]2 [EB]4 | [EB]2 [EB][EB] [EB]3 [EB] | c3 z c [Ad]4 | %4
 e3 z e B2 [Ac]2 | [GB]4 [GB]4 |] %6
V:2
 x8 | x8 | x8 | E2 E2 x5 | G2 A2 B2 x3 | x8 |] %6
V:3
 [E,B,]2 [E,B,][E,B,] [E,B,]3 [E,B,] | [E,B,]2 [E,B,]2 [E,G,]4 | [G,_D]2 [G,D][G,D] [G,D]3 [G,D] | %3
 [A,C]2 [G,B,]2 [F,A,]4 x | [E,B,]2 [F,B,]2 [G,E]2 [A,E]2 x | [B,E]4 [B,D]4 |] %6

